images/plus-chem.svg

<svg width="77" height="77" viewBox="0 0 77 77" fill="none" xmlns="http://www.w3.org/2000/svg">
<path d="M66.8486 73.3906H10.1514C5.16792 73.3906 1.12793 69.3506 1.12793 64.3672V22.2578C1.12793 17.2744 5.16792 13.2344 10.1514 13.2344H66.8486C71.8321 13.2344 75.8721 17.2744 75.8721 22.2578V64.3672C75.8721 69.3506 71.8321 73.3906 66.8486 73.3906Z" fill="#FF573D"/>
<path d="M66.8486 13.2344H62.3369C67.3204 13.2344 71.3604 17.2744 71.3604 22.2578V64.3672C71.3604 69.3506 67.3204 73.3906 62.3369 73.3906H66.8486C71.8321 73.3906 75.8721 69.3506 75.8721 64.3672V22.2578C75.8721 17.2744 71.8321 13.2344 66.8486 13.2344Z" fill="#E64028"/>
<path d="M52.7871 50.6334C52.7871 58.5242 46.3908 64.9205 38.5 64.9205C30.6092 64.9205 24.2129 58.5242 24.2129 50.6334C24.2129 42.7432 30.6092 36.3463 38.5 36.3463C46.3908 36.3463 52.7871 42.7432 52.7871 50.6334Z" fill="#FFD659"/>
<path d="M38.5 36.3463C37.7322 36.3463 36.9791 36.408 36.2441 36.5243C43.0628 37.6058 48.2754 43.5104 48.2754 50.6334C48.2754 57.7564 43.0628 63.661 36.2441 64.7425C36.9791 64.8594 37.7322 64.9205 38.5 64.9205C46.3908 64.9205 52.7871 58.5242 52.7871 50.6334C52.7871 42.7432 46.3908 36.3463 38.5 36.3463Z" fill="#FFBD54"/>
<path d="M28.7246 34.2891C28.7246 36.7811 26.7049 38.8008 24.2129 38.8008C21.7209 38.8008 19.7012 36.7811 19.7012 34.2891C19.7012 31.797 21.7209 29.7773 24.2129 29.7773C26.7049 29.7773 28.7246 31.797 28.7246 34.2891Z" fill="#FFD659"/>
<path d="M57.2988 34.2891C57.2988 36.7811 55.2791 38.8008 52.7871 38.8008C50.2951 38.8008 48.2754 36.7811 48.2754 34.2891C48.2754 31.797 50.2951 29.7773 52.7871 29.7773C55.2791 29.7773 57.2988 31.797 57.2988 34.2891Z" fill="#FFD659"/>
<path d="M43.0117 28.875C43.0117 31.367 40.992 33.3867 38.5 33.3867C36.008 33.3867 33.9883 31.367 33.9883 28.875C33.9883 26.383 36.008 24.3633 38.5 24.3633C40.992 24.3633 43.0117 26.383 43.0117 28.875Z" fill="#FFD659"/>
<path d="M24.2129 29.7773C23.391 29.7773 22.6209 29.9982 21.957 30.3824C23.3053 31.1626 24.2129 32.6195 24.2129 34.2891C24.2129 35.9586 23.3053 37.4155 21.957 38.1957C22.6209 38.5799 23.391 38.8008 24.2129 38.8008C26.7049 38.8008 28.7246 36.7811 28.7246 34.2891C28.7246 31.797 26.7049 29.7773 24.2129 29.7773Z" fill="#FFBD54"/>
<path d="M52.7871 29.7773C51.9652 29.7773 51.1951 29.9982 50.5312 30.3824C51.8795 31.1626 52.7871 32.6195 52.7871 34.2891C52.7871 35.9586 51.8795 37.4155 50.5312 38.1957C51.1951 38.5799 51.9652 38.8008 52.7871 38.8008C55.2791 38.8008 57.2988 36.7811 57.2988 34.2891C57.2988 31.797 55.2791 29.7773 52.7871 29.7773Z" fill="#FFBD54"/>
<path d="M38.5 24.3633C37.6781 24.3633 36.908 24.5842 36.2441 24.9684C37.5924 25.7485 38.5 27.2054 38.5 28.875C38.5 30.5446 37.5924 32.0015 36.2441 32.7816C36.908 33.1658 37.6781 33.3867 38.5 33.3867C40.992 33.3867 43.0117 31.367 43.0117 28.875C43.0117 26.383 40.992 24.3633 38.5 24.3633Z" fill="#FFBD54"/>
<path d="M46.0195 50.5312C46.0195 51.154 45.7669 51.7179 45.358 52.1256C44.9503 52.5345 44.3864 52.7871 43.7637 52.7871H40.7559V55.7949C40.7559 57.0403 39.7454 58.0508 38.5 58.0508C37.2546 58.0508 36.2441 57.0403 36.2441 55.7949V52.7871H33.2363C31.9909 52.7871 30.9805 51.7767 30.9805 50.5312C30.9805 49.2858 31.9909 48.2754 33.2363 48.2754H36.2441V45.2676C36.2441 44.0222 37.2546 43.0117 38.5 43.0117C39.1227 43.0117 39.6867 43.2643 40.0944 43.6732C40.5033 44.0809 40.7559 44.6449 40.7559 45.2676V48.2754H43.7637C45.0091 48.2754 46.0195 49.2858 46.0195 50.5312Z" fill="#89CEEA"/>
<path d="M56.6973 10.1843V18.4229C56.6973 19.6689 55.6874 20.6787 54.4414 20.6787C53.1954 20.6787 52.1855 19.6689 52.1855 18.4229V10.1843C52.1855 7.67462 50.1506 5.63965 47.6409 5.63965H29.3591C26.8494 5.63965 24.8145 7.67462 24.8145 10.1843V18.4229C24.8145 19.6689 23.8046 20.6787 22.5586 20.6787C21.3126 20.6787 20.3027 19.6689 20.3027 18.4229V10.1843C20.3027 5.1826 24.3574 1.12793 29.3591 1.12793H47.6409C52.6426 1.12793 56.6973 5.1826 56.6973 10.1843Z" fill="#E8E1D5"/>
<path d="M47.6409 1.12793H43.1292C48.0521 1.12793 52.0551 5.05747 52.1796 9.95045C52.1837 10.028 52.1855 10.1061 52.1855 10.1843V18.4229C52.1855 19.6689 53.1953 20.6787 54.4413 20.6787C55.6874 20.6787 56.6972 19.6689 56.6972 18.4229V10.1843C56.6972 5.1826 52.6425 1.12793 47.6409 1.12793Z" fill="#D6CFC4"/>
<path d="M14.1367 71.3604H23.1602V75.8721H14.1367V71.3604Z" fill="#E8E1D5"/>
<path d="M53.8398 71.3604H62.8633V75.8721H53.8398V71.3604Z" fill="#E8E1D5"/>
<path d="M18.6484 71.3604H23.1602V75.8721H18.6484V71.3604Z" fill="#D6CFC4"/>
<path d="M58.3516 71.3604H62.8633V75.8721H58.3516V71.3604Z" fill="#D6CFC4"/>
<path d="M66.8486 12.1064H63.7656C63.1429 12.1064 62.6377 12.6117 62.6377 13.2344C62.6377 13.8571 63.1429 14.3623 63.7656 14.3623H66.8486C71.2023 14.3623 74.7441 17.9041 74.7441 22.2578V64.3672C74.7441 68.7209 71.2023 72.2627 66.8486 72.2627H63.9912V71.3604C63.9912 70.7376 63.486 70.2324 62.8633 70.2324H53.8398C53.2171 70.2324 52.7119 70.7376 52.7119 71.3604V72.2627H24.2881V71.3604C24.2881 70.7376 23.7829 70.2324 23.1602 70.2324H14.1367C13.514 70.2324 13.0088 70.7376 13.0088 71.3604V72.2627H10.1514C5.79768 72.2627 2.25586 68.7209 2.25586 64.3672V28.8374C2.25586 28.2147 1.75064 27.7095 1.12793 27.7095C0.505219 27.7095 0 28.2147 0 28.8374V64.3672C0 69.9645 4.55402 74.5186 10.1514 74.5186H13.0088V75.8721C13.0088 76.4948 13.514 77 14.1367 77H23.1602C23.7829 77 24.2881 76.4948 24.2881 75.8721V74.5186H52.7119V75.8721C52.7119 76.4948 53.2171 77 53.8398 77H62.8633C63.486 77 63.9912 76.4948 63.9912 75.8721V74.5186H66.8486C72.446 74.5186 77 69.9645 77 64.3672V22.2578C77 16.6605 72.446 12.1064 66.8486 12.1064ZM22.0322 74.7441H15.2646V72.4883H22.0322V74.7441ZM61.7354 74.7441H54.9678V72.4883H61.7354V74.7441Z" fill="black"/>
<path d="M1.12793 25.1528C1.75064 25.1528 2.25586 24.6476 2.25586 24.0249V22.2578C2.25586 17.9041 5.79768 14.3623 10.1514 14.3623H19.1748V18.4229C19.1748 20.2886 20.6928 21.8066 22.5586 21.8066C24.4244 21.8066 25.9424 20.2886 25.9424 18.4229V14.3623H51.0576V18.4229C51.0576 20.2886 52.5756 21.8066 54.4414 21.8066C56.3072 21.8066 57.8252 20.2886 57.8252 18.4229V14.3623H58.9531C59.5758 14.3623 60.0811 13.8571 60.0811 13.2344C60.0811 12.6117 59.5758 12.1064 58.9531 12.1064H57.8252V10.1843C57.8252 4.5687 53.2565 0 47.6409 0H29.3591C23.7435 0 19.1748 4.5687 19.1748 10.1843V12.1064H10.1514C4.55402 12.1064 0 16.6605 0 22.2578V24.0249C0 24.6476 0.505219 25.1528 1.12793 25.1528ZM25.9424 12.1064V10.1843C25.9424 8.30027 27.4751 6.76758 29.3591 6.76758H47.6409C49.5249 6.76758 51.0576 8.30027 51.0576 10.1843V12.1064H25.9424ZM21.4307 10.1843C21.4307 5.81236 24.9872 2.25586 29.3591 2.25586H47.6409C52.0128 2.25586 55.5693 5.81236 55.5693 10.1843V18.4229C55.5693 19.045 55.0635 19.5508 54.4414 19.5508C53.8193 19.5508 53.3135 19.045 53.3135 18.4229V10.1843C53.3135 7.05661 50.7686 4.51172 47.6409 4.51172H29.3591C26.2314 4.51172 23.6865 7.05661 23.6865 10.1843V18.4229C23.6865 19.045 23.1807 19.5508 22.5586 19.5508C21.9365 19.5508 21.4307 19.045 21.4307 18.4229V10.1843Z" fill="black"/>
<path d="M28.6852 61.0768C28.2958 61.5626 28.3733 62.2722 28.8591 62.6623C31.5803 64.8459 35.004 66.0485 38.5 66.0485C47 66.0485 53.915 59.1334 53.915 50.6334C53.915 42.1334 47 35.2184 38.5 35.2184C30 35.2184 23.085 42.1334 23.085 50.6334C23.085 53.539 23.898 56.3694 25.436 58.8191C25.7673 59.3467 26.4635 59.5059 26.991 59.1746C27.5185 58.8432 27.6772 58.1471 27.3464 57.6195C26.034 55.5299 25.3408 53.1143 25.3408 50.6334C25.3408 43.3771 31.2442 37.4742 38.5 37.4742C45.7558 37.4742 51.6592 43.3771 51.6592 50.6334C51.6592 57.8892 45.7558 63.7926 38.5 63.7926C35.4722 63.7926 32.6271 62.7933 30.2708 60.9029C29.785 60.5128 29.0753 60.5909 28.6852 61.0768Z" fill="black"/>
<path d="M29.8525 34.2891C29.8525 31.179 27.3229 28.6494 24.2129 28.6494C21.1029 28.6494 18.5732 31.179 18.5732 34.2891C18.5732 37.3991 21.1029 39.9287 24.2129 39.9287C27.3229 39.9287 29.8525 37.3991 29.8525 34.2891ZM24.2129 37.6729C22.3471 37.6729 20.8291 36.1548 20.8291 34.2891C20.8291 32.4233 22.3471 30.9053 24.2129 30.9053C26.0787 30.9053 27.5967 32.4233 27.5967 34.2891C27.5967 36.1548 26.0787 37.6729 24.2129 37.6729Z" fill="black"/>
<path d="M58.4268 34.2891C58.4268 31.179 55.8971 28.6494 52.7871 28.6494C49.6771 28.6494 47.1475 31.179 47.1475 34.2891C47.1475 37.3991 49.6771 39.9287 52.7871 39.9287C55.8971 39.9287 58.4268 37.3991 58.4268 34.2891ZM52.7871 37.6729C50.9213 37.6729 49.4033 36.1548 49.4033 34.2891C49.4033 32.4233 50.9213 30.9053 52.7871 30.9053C54.6529 30.9053 56.1709 32.4233 56.1709 34.2891C56.1709 36.1548 54.6529 37.6729 52.7871 37.6729Z" fill="black"/>
<path d="M44.1396 28.875C44.1396 25.765 41.61 23.2354 38.5 23.2354C35.39 23.2354 32.8604 25.765 32.8604 28.875C32.8604 31.985 35.39 34.5146 38.5 34.5146C41.61 34.5146 44.1396 31.985 44.1396 28.875ZM35.1162 28.875C35.1162 27.0092 36.6342 25.4912 38.5 25.4912C40.3658 25.4912 41.8838 27.0092 41.8838 28.875C41.8838 30.7408 40.3658 32.2588 38.5 32.2588C36.6342 32.2588 35.1162 30.7408 35.1162 28.875Z" fill="black"/>
<path d="M40.8933 42.8772C40.2548 42.2369 39.4047 41.8838 38.5 41.8838C36.6342 41.8838 35.1162 43.4018 35.1162 45.2676V47.1475H33.2363C31.3705 47.1475 29.8525 48.6655 29.8525 50.5312C29.8525 52.397 31.3705 53.915 33.2363 53.915H35.1162V55.7949C35.1162 57.6607 36.6342 59.1787 38.5 59.1787C40.3658 59.1787 41.8838 57.6607 41.8838 55.7949V53.915H43.7637C44.6684 53.915 45.5184 53.562 46.1541 52.9246C46.7944 52.286 47.1475 51.4359 47.1475 50.5312C47.1475 48.6655 45.6295 47.1475 43.7637 47.1475H41.8838V45.2676C41.8838 44.3629 41.5307 43.5128 40.8933 42.8772ZM43.7637 49.4033C44.3858 49.4033 44.8916 49.9091 44.8916 50.5312C44.8916 50.832 44.7747 51.1146 44.5585 51.329C44.347 51.5423 44.0645 51.6592 43.7637 51.6592H40.7559C40.1331 51.6592 39.6279 52.1644 39.6279 52.7871V55.7949C39.6279 56.417 39.1221 56.9229 38.5 56.9229C37.8779 56.9229 37.3721 56.417 37.3721 55.7949V52.7871C37.3721 52.1644 36.8669 51.6592 36.2441 51.6592H33.2363C32.6142 51.6592 32.1084 51.1534 32.1084 50.5312C32.1084 49.9091 32.6142 49.4033 33.2363 49.4033H36.2441C36.8669 49.4033 37.3721 48.8981 37.3721 48.2754V45.2676C37.3721 44.6455 37.8779 44.1396 38.5 44.1396C38.8008 44.1396 39.0834 44.2566 39.2978 44.4727C39.511 44.6842 39.6279 44.9668 39.6279 45.2676V48.2754C39.6279 48.8981 40.1331 49.4033 40.7559 49.4033H43.7637Z" fill="black"/>
<path d="M8.19629 19.0996C8.19629 19.7223 7.69107 20.2275 7.06836 20.2275C6.44565 20.2275 5.94043 19.7223 5.94043 19.0996C5.94043 18.4769 6.44565 17.9717 7.06836 17.9717C7.69107 17.9717 8.19629 18.4769 8.19629 19.0996Z" fill="black"/>
<path d="M70.458 19.0996C70.458 19.7223 69.9528 20.2275 69.3301 20.2275C68.7074 20.2275 68.2021 19.7223 68.2021 19.0996C68.2021 18.4769 68.7074 17.9717 69.3301 17.9717C69.9528 17.9717 70.458 18.4769 70.458 19.0996Z" fill="black"/>
<path d="M8.19629 67.6758C8.19629 68.2985 7.69107 68.8037 7.06836 68.8037C6.44565 68.8037 5.94043 68.2985 5.94043 67.6758C5.94043 67.0531 6.44565 66.5479 7.06836 66.5479C7.69107 66.5479 8.19629 67.0531 8.19629 67.6758Z" fill="black"/>
<path d="M70.458 67.6758C70.458 68.2985 69.9528 68.8037 69.3301 68.8037C68.7074 68.8037 68.2021 68.2985 68.2021 67.6758C68.2021 67.0531 68.7074 66.5479 69.3301 66.5479C69.9528 66.5479 70.458 67.0531 70.458 67.6758Z" fill="black"/>
</svg>

<svg width="77" height="77" fill="none" xmlns="http://www.w3.org/2000/svg"><path d="M66.849 73.39H10.15a9.024 9.024 0 01-9.023-9.023v-42.11a9.024 9.024 0 019.023-9.023H66.85a9.024 9.024 0 019.023 9.024v42.11a9.024 9.024 0 01-9.023 9.023z" fill="#FF573D"/><path d="M66.849 13.234h-4.512a9.024 9.024 0 019.023 9.024v42.11a9.024 9.024 0 01-9.023 9.023h4.512a9.024 9.024 0 009.023-9.024v-42.11a9.024 9.024 0 00-9.023-9.023z" fill="#E64028"/><path d="M52.787 50.633c0 7.891-6.396 14.288-14.287 14.288-7.89 0-14.287-6.397-14.287-14.288 0-7.89 6.396-14.287 14.287-14.287 7.89 0 14.287 6.397 14.287 14.287z" fill="#FFD659"/><path d="M38.5 36.346c-.768 0-1.52.062-2.256.178 6.819 1.082 12.031 6.986 12.031 14.11 0 7.122-5.212 13.027-12.03 14.109.734.116 1.487.178 2.255.178 7.89 0 14.287-6.397 14.287-14.288 0-7.89-6.396-14.287-14.287-14.287z" fill="#FFBD54"/><path d="M28.725 34.29a4.511 4.511 0 11-9.023 0 4.511 4.511 0 019.023 0zM57.299 34.29a4.511 4.511 0 11-9.023 0 4.511 4.511 0 019.023 0zM43.012 28.875a4.511 4.511 0 11-9.023 0 4.511 4.511 0 019.023 0z" fill="#FFD659"/><path d="M24.213 29.777a4.49 4.49 0 00-2.256.605 4.509 4.509 0 010 7.814 4.511 4.511 0 102.256-8.418zM52.787 29.777a4.49 4.49 0 00-2.256.605 4.509 4.509 0 010 7.814 4.511 4.511 0 102.256-8.418zM38.5 24.363a4.49 4.49 0 00-2.256.605 4.508 4.508 0 010 7.814 4.511 4.511 0 102.256-8.418z" fill="#FFBD54"/><path d="M46.02 50.531c0 .623-.253 1.187-.662 1.595a2.244 2.244 0 01-1.594.661h-3.008v3.008a2.257 2.257 0 01-4.512 0v-3.008h-3.008a2.256 2.256 0 010-4.512h3.008v-3.007a2.257 2.257 0 014.512 0v3.007h3.008a2.256 2.256 0 012.255 2.256z" fill="#89CEEA"/><path d="M56.697 10.184v8.239a2.256 2.256 0 11-4.512 0v-8.239a4.545 4.545 0 00-4.544-4.544H29.359a4.545 4.545 0 00-4.545 4.544v8.239a2.256 2.256 0 11-4.511 0v-8.239a9.056 9.056 0 019.056-9.056h18.282a9.056 9.056 0 019.056 9.056z" fill="#E8E1D5"/><path d="M47.64 1.128h-4.51c4.922 0 8.925 3.93 9.05 8.822.004.078.005.156.005.234v8.239a2.256 2.256 0 104.512 0v-8.239a9.056 9.056 0 00-9.056-9.056z" fill="#D6CFC4"/><path d="M14.137 71.36h9.023v4.512h-9.023V71.36zM53.84 71.36h9.023v4.512H53.84V71.36z" fill="#E8E1D5"/><path d="M18.648 71.36h4.512v4.512h-4.512V71.36zM58.352 71.36h4.511v4.512h-4.511V71.36z" fill="#D6CFC4"/><path d="M66.849 12.106h-3.083a1.128 1.128 0 000 2.256h3.083c4.353 0 7.895 3.542 7.895 7.896v42.11c0 4.353-3.542 7.895-7.895 7.895H63.99v-.903c0-.622-.505-1.128-1.128-1.128H53.84c-.623 0-1.128.506-1.128 1.128v.903H24.288v-.903c0-.622-.505-1.128-1.128-1.128h-9.023c-.623 0-1.128.506-1.128 1.128v.903H10.15c-4.353 0-7.895-3.542-7.895-7.896v-35.53a1.128 1.128 0 00-2.256 0v35.53C0 69.964 4.554 74.52 10.151 74.52h2.858v1.353c0 .623.505 1.128 1.128 1.128h9.023c.623 0 1.128-.505 1.128-1.128V74.52h28.424v1.353c0 .623.505 1.128 1.128 1.128h9.023c.623 0 1.128-.505 1.128-1.128V74.52h2.858C72.446 74.519 77 69.964 77 64.367v-42.11c0-5.597-4.554-10.15-10.151-10.15zM22.032 74.744h-6.767v-2.256h6.767v2.256zm39.703 0h-6.767v-2.256h6.767v2.256z" fill="#000"/><path d="M1.128 25.153c.623 0 1.128-.505 1.128-1.128v-1.767c0-4.354 3.542-7.896 7.895-7.896h9.024v4.06a3.388 3.388 0 003.384 3.385 3.388 3.388 0 003.383-3.384v-4.06h25.116v4.06a3.388 3.388 0 003.383 3.384 3.388 3.388 0 003.384-3.384v-4.06h1.128a1.128 1.128 0 000-2.257h-1.128v-1.922C57.825 4.57 53.256 0 47.641 0H29.359c-5.616 0-10.184 4.569-10.184 10.184v1.922H10.15C4.554 12.106 0 16.66 0 22.258v1.767c0 .623.505 1.128 1.128 1.128zm24.814-13.047v-1.922a3.42 3.42 0 013.417-3.416h18.282a3.42 3.42 0 013.417 3.416v1.922H25.942zm-4.511-1.922c0-4.372 3.556-7.928 7.928-7.928h18.282c4.372 0 7.928 3.556 7.928 7.928v8.239a1.129 1.129 0 01-2.256 0v-8.239a5.68 5.68 0 00-5.672-5.672H29.359a5.68 5.68 0 00-5.673 5.672v8.239a1.129 1.129 0 01-2.255 0v-8.239zM28.685 61.077a1.128 1.128 0 00.174 1.585A15.456 15.456 0 0038.5 66.05c8.5 0 15.415-6.916 15.415-15.416S47 35.218 38.5 35.218s-15.415 6.915-15.415 15.415c0 2.906.813 5.736 2.351 8.186a1.128 1.128 0 101.91-1.2 13.116 13.116 0 01-2.005-6.986c0-7.256 5.903-13.159 13.159-13.159 7.256 0 13.16 5.903 13.16 13.16 0 7.255-5.904 13.159-13.16 13.159-3.028 0-5.873-1-8.23-2.89a1.128 1.128 0 00-1.585.174z" fill="#000"/><path d="M29.852 34.29c0-3.111-2.53-5.64-5.64-5.64s-5.639 2.529-5.639 5.64c0 3.11 2.53 5.639 5.64 5.639s5.64-2.53 5.64-5.64zm-5.64 3.383a3.388 3.388 0 01-3.383-3.384 3.388 3.388 0 013.384-3.384 3.388 3.388 0 013.384 3.384 3.388 3.388 0 01-3.384 3.384zM58.427 34.29c0-3.111-2.53-5.64-5.64-5.64s-5.64 2.529-5.64 5.64c0 3.11 2.53 5.639 5.64 5.639s5.64-2.53 5.64-5.64zm-5.64 3.383a3.388 3.388 0 01-3.384-3.384 3.388 3.388 0 013.384-3.384 3.388 3.388 0 013.384 3.384 3.388 3.388 0 01-3.384 3.384zM44.14 28.875c0-3.11-2.53-5.64-5.64-5.64s-5.64 2.53-5.64 5.64 2.53 5.64 5.64 5.64 5.64-2.53 5.64-5.64zm-9.024 0a3.388 3.388 0 013.384-3.384 3.388 3.388 0 013.384 3.384 3.388 3.388 0 01-3.384 3.384 3.388 3.388 0 01-3.384-3.384zM40.893 42.877a3.358 3.358 0 00-2.393-.993 3.388 3.388 0 00-3.384 3.384v1.88h-1.88a3.388 3.388 0 00-3.383 3.383 3.388 3.388 0 003.383 3.384h1.88v1.88a3.388 3.388 0 003.384 3.384 3.388 3.388 0 003.384-3.384v-1.88h1.88c.904 0 1.754-.353 2.39-.99.64-.639.993-1.49.993-2.394a3.388 3.388 0 00-3.383-3.383h-1.88v-1.88c0-.905-.353-1.755-.99-2.39zm2.87 6.526c.623 0 1.129.506 1.129 1.128 0 .301-.117.584-.334.798-.211.213-.493.33-.794.33h-3.008c-.623 0-1.128.505-1.128 1.128v3.008a1.129 1.129 0 01-2.256 0v-3.008c0-.623-.505-1.128-1.128-1.128h-3.008a1.129 1.129 0 010-2.256h3.008c.623 0 1.128-.505 1.128-1.128v-3.007c0-.623.506-1.128 1.128-1.128.3 0 .583.117.798.333.213.211.33.494.33.795v3.007c0 .623.505 1.128 1.128 1.128h3.008zM8.196 19.1a1.128 1.128 0 11-2.256-.001 1.128 1.128 0 012.256 0zM70.458 19.1a1.128 1.128 0 11-2.256-.001 1.128 1.128 0 012.256 0zM8.196 67.676a1.128 1.128 0 11-2.256 0 1.128 1.128 0 012.256 0zM70.458 67.676a1.128 1.128 0 11-2.256 0 1.128 1.128 0 012.256 0z" fill="#000"/></svg>
